Hatter-kde/actions/16/color-mode-hue-shift-positive.svg

<?xml version="1.0" encoding="UTF-8"?>
<svg id="svg2" version="1.1" viewBox="0 0 16 16" xmlns="http://www.w3.org/2000/svg" xmlns:cc="http://creativecommons.org/ns#" xmlns:dc="http://purl.org/dc/elements/1.1/" xmlns:rdf="http://www.w3.org/1999/02/22-rdf-syntax-ns#" xmlns:xlink="http://www.w3.org/1999/xlink">
 <metadata id="metadata10">
  <rdf:RDF>
   <cc:Work rdf:about="">
    <dc:format>image/svg+xml</dc:format>
    <dc:type rdf:resource="http://purl.org/dc/dcmitype/StillImage"/>
    <dc:title/>
   </cc:Work>
  </rdf:RDF>
 </metadata>
 <defs id="defs8">
  <path id="H" d="m24 8c-8.864 0-16 7.136-16 16h16v-16" fill="url(#0)"/>
  <path id="I" d="m408.57 539.8c8.864 0 16-7.136 16-16h-16v16" fill="url(#3)"/>
  <path id="J" d="m408.57 539.8c-8.864 0-16-7.136-16-16h16v16" fill="url(#1)"/>
  <linearGradient id="3" x1="424.57" x2="408.57" y1="523.8" y2="539.8" gradientUnits="userSpaceOnUse">
   <stop id="stop3346" stop-color="#c1cc00" offset="0"/>
   <stop id="stop3348" stop-color="#dfcd00" offset=".312"/>
   <stop id="stop3350" stop-color="#f0cc00" offset=".562"/>
   <stop id="stop3352" stop-color="#fd8c08" offset=".75"/>
   <stop id="stop3354" stop-color="#f25c13" offset="1"/>
  </linearGradient>
  <linearGradient id="0" x1="8" x2="24" y1="24" y2="8" gradientUnits="userSpaceOnUse">
   <stop id="stop3357" stop-color="#e81877" offset="0"/>
   <stop id="stop3359" stop-color="#dd1d8c" offset=".312"/>
   <stop id="stop3361" stop-color="#6d57b1" offset=".562"/>
   <stop id="stop3363" stop-color="#2a78c1" offset=".75"/>
   <stop id="stop3365" stop-color="#018dcb" offset="1"/>
  </linearGradient>
  <linearGradient id="2" x1="424.57" x2="408.57" y1="523.8" y2="507.8" gradientUnits="userSpaceOnUse">
   <stop id="stop3368" stop-color="#bec900" offset="0"/>
   <stop id="stop3370" stop-color="#9ec80a" offset=".312"/>
   <stop id="stop3372" stop-color="#71b93d" offset=".562"/>
   <stop id="stop3374" stop-color="#35a48f" offset=".75"/>
   <stop id="stop3376" stop-color="#018fca" offset="1"/>
  </linearGradient>
  <linearGradient id="1" x1="392.57" x2="408.57" y1="523.8" y2="539.8" gradientUnits="userSpaceOnUse">
   <stop id="stop3379" stop-color="#e51561" offset="0"/>
   <stop id="stop3381" stop-color="#e4156c" offset=".312"/>
   <stop id="stop3383" stop-color="#e71e2c" offset=".562"/>
   <stop id="stop3385" stop-color="#e8301e" offset=".75"/>
   <stop id="stop3387" stop-color="#e6320e" offset="1"/>
  </linearGradient>
  <linearGradient id="linearGradient3480" x1="424.57" x2="408.57" y1="523.8" y2="507.8" gradientUnits="userSpaceOnUse" xlink:href="#2"/>
  <linearGradient id="linearGradient3484" x1="392.57" x2="408.57" y1="523.8" y2="539.8" gradientUnits="userSpaceOnUse" xlink:href="#1"/>
  <style type="text/css" id="current-color-scheme">
   .ColorScheme-Text {
    color:#363636;
   }
  </style>
 </defs>
 <g id="g3389" transform="matrix(.78152 0 0 .78147 -.59691 -806.8)">
  <g id="g3391" transform="matrix(.38637 .10353 -.10353 .38637 -92.63 796.68)">
   <use id="use3393" transform="translate(384.57,499.8)" width="100%" height="100%" clip-path="url(#5)" xlink:href="#H"/>
   <use id="use3395" width="100%" height="100%" clip-path="url(#6)" xlink:href="#J"/>
   <path id="path3397" d="m408.57 507.8c8.864 0 16 7.136 16 16h-16v-16" clip-path="url(#7)" fill="url(#linearGradient3480)"/>
   <use id="use3399" width="100%" height="100%" clip-path="url(#8)" xlink:href="#I"/>
  </g>
  <g id="g3401" transform="matrix(.4 0 0 .4 -152.43 831.84)" opacity=".7">
   <use id="use3403" transform="translate(384.57,499.8)" width="100%" height="100%" clip-path="url(#9)" filter="url(#4)" xlink:href="#H"/>
   <use id="use3405" width="100%" height="100%" clip-path="url(#A)" filter="url(#4)" xlink:href="#J"/>
   <use id="use3407" width="100%" height="100%" clip-path="url(#B)" filter="url(#4)" xlink:href="#I"/>
   <path id="path3409" d="m408.57 507.8c8.864 0 16 7.136 16 16h-16v-16" clip-path="url(#C)" fill="url(#linearGradient3480)" filter="url(#4)"/>
  </g>
  <use id="use3411" transform="matrix(.28284 .28284 -.28284 .28284 11 1027.8)" width="100%" height="100%" clip-path="url(#9)" opacity=".35" xlink:href="#H"/>
  <path id="path3413" transform="matrix(.28284 .28284 -.28284 .28284 43.591 777.65)" d="m408.57 539.8c-8.864 0-16-7.136-16-16h16v16" clip-path="url(#A)" fill="url(#linearGradient3484)" opacity=".35"/>
  <use id="use3415" transform="matrix(.28284 .28284 -.28284 .28284 43.591 777.65)" width="100%" height="100%" clip-path="url(#B)" opacity=".35" xlink:href="#I"/>
  <path id="path3417" transform="matrix(.28284 .28284 -.28284 .28284 43.591 777.65)" d="m408.57 507.8c8.864 0 16 7.136 16 16h-16v-16" clip-path="url(#C)" fill="url(#linearGradient3480)" opacity=".35"/>
  <g id="g3419" transform="matrix(.10353 .38637 -.38637 .10353 171.08 829.27)">
   <use id="use3421" transform="translate(384.57,499.8)" width="100%" height="100%" clip-path="url(#D)" opacity=".3" xlink:href="#H"/>
   <use id="use3423" width="100%" height="100%" clip-path="url(#E)" opacity=".3" xlink:href="#J"/>
   <use id="use3425" width="100%" height="100%" clip-path="url(#F)" opacity=".3" xlink:href="#I"/>
   <path id="path3427" d="m408.57 507.8c8.864 0 16 7.136 16 16h-16v-16" clip-path="url(#G)" fill="url(#linearGradient3480)" opacity=".3"/>
  </g>
 </g>
 <path d="M 1 11.7078 L 3.5 14.2078 L 6 11.7078 L 5.29297 11.0007 L 4 12.2937 L 4 6.99997 C 4 4.79083 5.79087 2.99997 8 2.99997 C 10.2091 2.99997 12 4.79083 12 6.99997 L 13 6.99997 C 13 4.23855 10.7614 1.99997 8 1.99997 C 5.23858 1.99997 3 4.23855 3 6.99997 L 3 12.2937 L 1.70704 11.0007 L 1 11.7078 Z" class="ColorScheme-Text" style="fill:currentColor; fill-opacity:1; stroke:none"/>
</svg>

<?xml version="1.0" encoding="UTF-8"?>
<svg id="svg2" version="1.1" viewBox="0 0 16 16" xmlns="http://www.w3.org/2000/svg" xmlns:cc="http://creativecommons.org/ns#" xmlns:dc="http://purl.org/dc/elements/1.1/" xmlns:rdf="http://www.w3.org/1999/02/22-rdf-syntax-ns#" xmlns:xlink="http://www.w3.org/1999/xlink">
 <metadata id="metadata10">
  <rdf:RDF>
   <cc:Work rdf:about="">
    <dc:format>image/svg+xml</dc:format>
    <dc:type rdf:resource="http://purl.org/dc/dcmitype/StillImage"/>
    <dc:title/>
   </cc:Work>
  </rdf:RDF>
 </metadata>
 <defs id="defs8">
  <path id="H" d="m24 8c-8.864 0-16 7.136-16 16h16v-16" fill="url(#0)"/>
  <path id="I" d="m408.57 539.8c8.864 0 16-7.136 16-16h-16v16" fill="url(#3)"/>
  <path id="J" d="m408.57 539.8c-8.864 0-16-7.136-16-16h16v16" fill="url(#1)"/>
  <linearGradient id="3" x1="424.57" x2="408.57" y1="523.8" y2="539.8" gradientUnits="userSpaceOnUse">
   <stop id="stop3346" stop-color="#c1cc00" offset="0"/>
   <stop id="stop3348" stop-color="#dfcd00" offset=".312"/>
   <stop id="stop3350" stop-color="#f0cc00" offset=".562"/>
   <stop id="stop3352" stop-color="#fd8c08" offset=".75"/>
   <stop id="stop3354" stop-color="#f25c13" offset="1"/>
  </linearGradient>
  <linearGradient id="0" x1="8" x2="24" y1="24" y2="8" gradientUnits="userSpaceOnUse">
   <stop id="stop3357" stop-color="#e81877" offset="0"/>
   <stop id="stop3359" stop-color="#dd1d8c" offset=".312"/>
   <stop id="stop3361" stop-color="#6d57b1" offset=".562"/>
   <stop id="stop3363" stop-color="#2a78c1" offset=".75"/>
   <stop id="stop3365" stop-color="#018dcb" offset="1"/>
  </linearGradient>
  <linearGradient id="1" x1="392.57" x2="408.57" y1="523.8" y2="539.8" gradientUnits="userSpaceOnUse">
   <stop id="stop3379" stop-color="#e51561" offset="0"/>
   <stop id="stop3381" stop-color="#e4156c" offset=".312"/>
   <stop id="stop3383" stop-color="#e71e2c" offset=".562"/>
   <stop id="stop3385" stop-color="#e8301e" offset=".75"/>
   <stop id="stop3387" stop-color="#e6320e" offset="1"/>
  </linearGradient>
  <linearGradient id="linearGradient3480" x1="424.57" x2="408.57" y1="523.8" y2="507.8" gradientUnits="userSpaceOnUse">
   <stop id="stop3368" stop-color="#bec900" offset="0"/>
   <stop id="stop3370" stop-color="#9ec80a" offset=".312"/>
   <stop id="stop3372" stop-color="#71b93d" offset=".562"/>
   <stop id="stop3374" stop-color="#35a48f" offset=".75"/>
   <stop id="stop3376" stop-color="#018fca" offset="1"/>
  </linearGradient>
  <linearGradient id="linearGradient3484" x1="392.57" x2="408.57" y1="523.8" y2="539.8" gradientUnits="userSpaceOnUse" xlink:href="#1"/>
  <style id="current-color-scheme" type="text/css">.ColorScheme-Text {
    color:#363636;
   }</style>
 </defs>
 <g id="g3389" transform="matrix(.78152 0 0 .78147 -.59691 -806.8)">
  <g id="g3391" transform="matrix(.38637 .10353 -.10353 .38637 -92.63 796.68)">
   <use id="use3393" transform="translate(384.57,499.8)" width="100%" height="100%" clip-path="url(#5)" xlink:href="#H"/>
   <use id="use3395" width="100%" height="100%" clip-path="url(#6)" xlink:href="#J"/>
   <path id="path3397" d="m408.57 507.8c8.864 0 16 7.136 16 16h-16v-16" clip-path="url(#7)" fill="url(#linearGradient3480)"/>
   <use id="use3399" width="100%" height="100%" clip-path="url(#8)" xlink:href="#I"/>
  </g>
  <g id="g3401" transform="matrix(.4 0 0 .4 -152.43 831.84)" opacity=".7">
   <use id="use3403" transform="translate(384.57,499.8)" width="100%" height="100%" clip-path="url(#9)" filter="url(#4)" xlink:href="#H"/>
   <use id="use3405" width="100%" height="100%" clip-path="url(#A)" filter="url(#4)" xlink:href="#J"/>
   <use id="use3407" width="100%" height="100%" clip-path="url(#B)" filter="url(#4)" xlink:href="#I"/>
   <path id="path3409" d="m408.57 507.8c8.864 0 16 7.136 16 16h-16v-16" clip-path="url(#C)" fill="url(#linearGradient3480)" filter="url(#4)"/>
  </g>
  <use id="use3411" transform="matrix(.28284 .28284 -.28284 .28284 11 1027.8)" width="100%" height="100%" clip-path="url(#9)" opacity=".35" xlink:href="#H"/>
  <path id="path3413" transform="matrix(.28284 .28284 -.28284 .28284 43.591 777.65)" d="m408.57 539.8c-8.864 0-16-7.136-16-16h16v16" clip-path="url(#A)" fill="url(#linearGradient3484)" opacity=".35"/>
  <use id="use3415" transform="matrix(.28284 .28284 -.28284 .28284 43.591 777.65)" width="100%" height="100%" clip-path="url(#B)" opacity=".35" xlink:href="#I"/>
  <path id="path3417" transform="matrix(.28284 .28284 -.28284 .28284 43.591 777.65)" d="m408.57 507.8c8.864 0 16 7.136 16 16h-16v-16" clip-path="url(#C)" fill="url(#linearGradient3480)" opacity=".35"/>
  <g id="g3419" transform="matrix(.10353 .38637 -.38637 .10353 171.08 829.27)">
   <use id="use3421" transform="translate(384.57,499.8)" width="100%" height="100%" clip-path="url(#D)" opacity=".3" xlink:href="#H"/>
   <use id="use3423" width="100%" height="100%" clip-path="url(#E)" opacity=".3" xlink:href="#J"/>
   <use id="use3425" width="100%" height="100%" clip-path="url(#F)" opacity=".3" xlink:href="#I"/>
   <path id="path3427" d="m408.57 507.8c8.864 0 16 7.136 16 16h-16v-16" clip-path="url(#G)" fill="url(#linearGradient3480)" opacity=".3"/>
  </g>
 </g>
 <path class="ColorScheme-Text" d="m1 11.708 2.5 2.5 2.5-2.5-0.70703-0.7071-1.293 1.293v-5.2937c0-2.2091 1.7909-4 4-4 2.2091 0 4 1.7909 4 4h1c0-2.7614-2.2386-5-5-5-2.7614 0-5 2.2386-5 5v5.2937l-1.293-1.293-0.70704 0.7071z" fill="currentColor"/>
</svg>
